X: 11114
T: TWINE WEEL THE PLAIDEN.
O: Old Scottish air.
Q: "Slow and distinct."
%R: air, strathspey
B: W. Hamilton "Universal Tune-Book" Vol. 1 Glasgow 1844 p.111 #4
S: http://imslp.org/wiki/Hamilton's_Universal_Tune-Book_(Various)
Z: 2016 John Chambers <jc:trillian.mit.edu>
M: C
L: 1/16
K: Eb
% - - - - - - - - - - - - - - - - - - - - - - - - -
(EF) |\
G2B2 G2(FE) (F2G)B c3c | B3c B2(AG) (B3G E2)(EF) |\
G2(GB) G2FE F2(GB) c3c | B3c (B>ce)G (B3G)E2 :|
|: (Bc/d/) |\
e3f e2(dc) d2(cB) B2(cd) | e3f e2(dc) (f3d) B2(cd) |\
e2(ef) e2(dc) c2B2 Hg3(f/e/) | (e3c) (cB)(e>G) F4 E2 :|
% - - - - - - - - - - - - - - - - - - - - - - - - -

%%sep 1 1 500
%%sep 1 1 500

